X:1
T:Ghost Stories
T:Ghost Stories
T:Zachary Torrevillas Piano Arrangement
T:D-Block & S-te-Fan
C:D-Block & S-te-Fan
%%score { 1 | 2 }
L:1/8
Q:1/4=151
M:4/4
K:C
V:1 treble nm="Piano" snm="Pno."
V:2 bass 
V:1
"^\n\n"!mp! A,2 E2 A2 c2 | A,2 E2 A2 c2 | F,2 C2 F2 A2 | z8 :|!8va(! z2!p! (e'4 e'2 | %5
 ^d'2 =d'2 c'2 a2) | z2 (f'4 f'2 | e'4 b4) | z2 (e'4 e'2 | ^d'2 =d'2 c'2 a2) | z2 (c'4 d'2 | %11
 b8)!8va)! ||!mp! z2 (e2 ^d2 e2 | d2 c2 B2 A2) | z2 (c2 d2 B2-) | B8 | z2 (e2 ^d2 e2 | %17
 d2 c2 B2 A2 | c4 d2 B2-) | B8 | z2 (A2- A2 A2 | B3 A B2 A2 | f2 f2 g2 e2-) | e8 | z2 (e4 d2 | %25
 c2 d2 c2 A2) | z2 (c4 d2 | B4 ^G4 | A8-) | A8 |!<(! z8 | eeee eee!f!e!<)! || z2 [ee']4 [ee']2 | %33
 [^d^d']2 [=d=d']2 [cc']2 [Aa]2 | z2 [ff']2 [ff']2 [dd']2 | [ee']4 [Bb]4 | z2 [ee']4 [ee']2 | %37
 [dd']2 [cc']2 [Bb]2 [cc']2 | z2 [cc']2 [cc']2 [dd']2 | [Bb]4 [^G^g]4 | z2 [ee']4 [ee']2 | %41
 [^d^d']2 [=d=d']2 [cc']2 [Aa]2 | z2 [ff']2 [ff']2 [dd']2 | [ee']4 [Bb]4 | z2 [ee']4 [ee']2 | %45
 [dd']2 [cc']2 [Bb]2 [cc']2 |!>(! z2 [cc']2 [cc']2 [dd']2 | [Bb]4 [^G^g]4!>)! | z2 (e4 d2 | %49
 c2 d2 c2 A2) | z2 (c4 d2 | B4 B4 | A8-) | A8 |!<(! z8 | z2 [Aa]2 [Bb]2 [cc']2!<)! || %56
!f! z2 [ee']4 [ee']2 | [^d^d']2 [=d=d']2 [cc']2 [Aa]2 | z2 [ff']2 [ff']2 [dd']2 | [ee']4 [Bb]4 | %60
 z2 [ee']4 [ee']2 | [dd']2 [cc']2 [Bb]2 [cc']2 | z2 [cc']2 [cc']2 [dd']2 | [Bb]4 [^G^g]4 | %64
 z2 [ee']4 [ee']2 | [^d^d']2 [=d=d']2 [cc']2 [Aa]2 | z2 [ff']2 [ff']2 [dd']2 | [ee']4 [Bb]4 | %68
 z2 [ee']4 [ee']2 | [dd']2 [cc']2 [Bb]2 [cc']2 |!>(! z2 [cc']2 [cc']2 [dd']2 | [Bb]4 [^G^g]4!>)! || %72
!mf! z2 [ee']4 [ee']2 | z8 | z2 [ee']4 [ee']2 | z8 | z2 [ee']4 [ee']2 | z8 | z2 [ee']4 [ee']2 |: %79
!mp! A,2 E2 A2 c2 | A,2 E2 A2 c2 | F,2 C2 F2 A2 | z8 :|!mp! z2 (e2 ^d2 e2 | d2 c2 B2 A2) | %85
 z2 (c2 d2 B2-) | B8 | z2 (e2 ^d2 e2 | d2 c2 B2 A2 | c4 d2 B2-) | B8 | z2 (A2- A2 A2 | B3 A B2 A2 | %93
 f2 f2 g2 e2-) | e8 | z2 (e4 d2 | c3 d c2 A2) |!<(! z2 (e4 e2 | g4 e4!<)! |!mf! a2) [ee']4 [ee']2 | %100
 [^d^d']2 [=d=d']2 [cc']2 [Aa]2 | z4{/CE} A4 | z8 | z2 [ee']4 [ee']2 | [dd']2 [cc']2 [Bb]2 [cc']2 | %105
 z2 [ee']4 [ee']2 | [gg']4 [ee']4 |!<(! [aa']4 (3[Ae]2 [Ae]2 [Ae]2 | %108
 (3[Ae]2 [Ae]2 [Ae]2 (3[Ae]2 [Ae]2 [Ae]2 | [ca][ca][ca][ca] [ca][ca][ca][ca] | %110
 c/a/c/a/ c/a/c/a/ c/a/c/a/ c/a/c/a/ | z8 | z8 | z8 | z2 [Aa]2 [Bb]2 [cc']2!<)! || %115
!f! z2 [ee']4 [ee']2 | [^d^d']2 [=d=d']2 [cc']2 [Aa]2 | z2 [ff']2 [ff']2 [dd']2 | [ee']4 [Bb]4 | %119
 z2 [ee']2 [dd']2 [ee']2 | [dd']2 [cc']2 [Bb]2 [cc']2 | z2 [cc']2 [cc']2 [dd']2 | [Bb]4 [^G^g]4 | %123
 z2 [Aa]2 [Bb]2 [Aa]2 | [cc']2 [Aa]2 [cc']2 [dd']2 | [ff']2 [ff']2 [ff']2 [dd']2 | [ee']4 [Bb]4 | %127
 z2 [ee']2 [dd']2 [ee']2 | [dd']2 [cc']2 [Bb]2 [cc']2 | z2!<(! [cc'][cc'] [cc']2 [dd']2 | %130
 [Bb]4 [^G^g]4!<)! |!ff! [Aca]8 | z8 |] %133
V:2
!ped! z8 | z8 | z8 | D,2 D2 E,2 E2!ped-up! :|!8va(!!ped! A,2 E2 A2 c2 | A,2 E2 A2 c2!8va)! | %6
 F,2 C2 F2 A2 | D,2 D2 E,2 E2!ped-up! |!8va(!!ped! A,2 E2 A2 c2 | A,2 E2 A2 c2!8va)! | %10
 F,2 C2 F2 A2 | D,2 D2 E,2 E2!ped-up! ||!ped! [A,,E,A,]8- | [A,,E,A,]8!ped-up! | %14
!ped! [F,,C,F,]8!ped-up! |!ped! [D,,A,,D,]4 [E,,B,,E,]4!ped-up! |!ped! [A,,E,A,]8- | %17
 [A,,E,A,]8!ped-up! |!ped! [F,,C,F,]8!ped-up! |!ped! [D,,A,,D,]4 [E,,B,,E,]4!ped-up! | %20
!ped! [A,,E,A,]8- | [A,,E,A,]8!ped-up! |!ped! [F,,C,F,]8!ped-up! | %23
!ped! [D,,A,,D,]4 [E,,B,,E,]4!ped-up! |!ped! [D,,A,,D,]8!ped-up! | [D,,A,,D,]4 [E,,B,,E,]4 | %26
!ped! [F,,C,F,]8!ped-up! | [D,,A,,D,]4 [E,,B,,E,]4 | [A,,E,A,]8- | [A,,E,A,]8 | %30
!<(! [A,,A,]2 [A,,A,]2 [A,,A,]2 [A,,A,]2 | [A,,A,]2 [A,,A,]2 [A,,A,][A,,A,][A,,A,][A,,A,]!<)! || %32
 [A,,,A,,]8 | [A,,,A,,]4 [A,,,A,,]4 | [F,,,F,,]8 | [D,,,D,,]4 [E,,,E,,]4 | [A,,,A,,]8 | %37
 [A,,,A,,]4 [A,,,A,,]4 | [F,,,F,,]8 | [D,,,D,,]4 [E,,,E,,]4 | [A,,,A,,]4 [A,,,A,,]4 | %41
 [A,,,A,,]4 [A,,,A,,]2 [G,,,G,,]2 | [F,,,F,,]4 [F,,,F,,]4 | [D,,,D,,]4 [E,,,E,,]4 | %44
 [D,,,D,,]4 [D,,,D,,]4 | [D,,,D,,]4 [E,,,E,,]4 | [F,,,F,,]4 [F,,,F,,]4 | [D,,,D,,]4 [E,,,E,,]4 | %48
!mp! [A,,,A,,]8- | [A,,,A,,]8 | [A,,,A,,]8- | [A,,,A,,]8 | %52
 [A,,,A,,]2 [A,,,A,,]2 [A,,,A,,]2 [A,,,A,,]2 | [A,,,A,,]2 [A,,,A,,]2 [A,,,A,,]2 [A,,,A,,]2 | %54
 [A,,,A,,][A,,,A,,][A,,,A,,][A,,,A,,] [A,,,A,,][A,,,A,,][A,,,A,,][A,,,A,,] | z8 || %56
 [A,,,A,,]2 [A,,,A,,]2 [A,,,A,,]2 [A,,,A,,]2 | %57
 [A,,,A,,]2 [A,,,A,,]2 [A,,,A,,][A,,,A,,][G,,,G,,][G,,,G,,] | %58
 [F,,,F,,]2 [F,,,F,,]2 [F,,,F,,]2 [F,,,F,,]2 | %59
 [D,,D,]2 [D,,D,]2 [E,,,E,,][E,,,E,,][E,,,E,,][E,,,E,,] | %60
 [A,,,A,,]2 [A,,,A,,]2 [A,,,A,,]2 [A,,,A,,]2 | [A,,,A,,]2 [A,,,A,,]2 [B,,,B,,]2 [C,,C,]2 | %62
 [F,,,F,,]2 [F,,,F,,][F,,,F,,] z [F,,,F,,] [F,,,F,,]2 | [D,,D,]2 [D,,D,]2 [E,,E,]2 [E,,E,]2 | %64
 [A,,,A,,]2 [A,,,A,,]2 [A,,,A,,]2 [A,,,A,,]2 | %65
 [A,,,A,,]2 [A,,,A,,]2 [A,,,A,,]2 [G,,,G,,][G,,,G,,] | %66
 [F,,,F,,]2 [F,,,F,,]2 [F,,,F,,]2 [F,,,F,,]2 | [D,,D,]2 [D,,D,]2 [E,,,E,,][E,,,E,,] [E,,,E,,]2 | %68
 [D,,,D,,]>[D,,,D,,] [D,,,D,,]2 [D,,,D,,]2 [D,,,D,,][D,,,D,,]/[D,,,D,,]/ | %69
 [D,,,D,,]2 [D,,,D,,]2 [E,,,E,,]2 [E,,,E,,]2 | %70
 [F,,,F,,]2 [F,,,F,,][F,,,F,,] z [F,,,F,,] [F,,,F,,]2 | [D,,D,]4 [E,,E,]4 || %72
 [A,,,A,,]2 [A,,,A,,]2 [A,,,A,,]2 [A,,,A,,]2 | %73
 [A,,,A,,]>[A,,,A,,] [A,,,A,,][A,,,A,,] [A,,,A,,]3 [A,,,A,,] | %74
 [A,,,A,,]2 [A,,,A,,]2 [A,,,A,,]2 [A,,,A,,]2 | [A,,,A,,]4 [A,,,A,,]3 [A,,,A,,] | %76
 [A,,,A,,]2 [A,,,A,,]2 [A,,,A,,]2 [A,,,A,,]2 | z [A,,,A,,]2 [A,,,A,,]2 [A,,,A,,]3 | %78
 [A,,,A,,][A,,,A,,][A,,,A,,][A,,,A,,] A,,,/A,,/A,,,/A,,/ A,,,/A,,/A,,,/A,,/ |:!ped! [A,,E,A,]8- | %80
 [A,,E,A,]8 | [F,,C,F,]8 | D,2 D2 E,2 E2!ped-up! :|!ped! A,,2 E,2 A,2 C2 | %84
 A,,2 E,2 A,2 C2!ped-up! |!ped! F,,2 C,2 F,2 A,2!ped-up! |!ped! D,2 D2 E,2 E2!ped-up! | %87
!ped! A,,2 E,2 A,2 C2 | A,,2 E,2 A,2 C2!ped-up! |!ped! F,,2 C,2 F,2 A,2!ped-up! | %90
!ped! D,2 D2 E,2 E2!ped-up! | [A,,E,A,]8- | [A,,E,A,]8 | [F,,C,F,]8 | [D,,A,,D,]4 [E,,B,,E,]4 | %95
 [D,,A,,D,]8 | [D,,A,,D,]4 [E,,B,,E,]4 | [F,,C,F,]8 | [D,,A,,D,]4 [E,,B,,E,]4 | %99
!ped! [A,,,A,,]2 [A,,,A,,]6- | [A,,,A,,]8!ped-up! |!ped! [A,,E,A,]8- | [A,,E,A,]8!ped-up! | %103
!ped! [A,,,A,,]2 [A,,,A,,]6- | [A,,,A,,]8!ped-up! |!ped! [D,,D,]8 | %106
 [D,,D,]4!ped-up!!ped! [E,,E,]4!ped-up! |!ped! [A,,A,]2 [A,,A,]2 [A,,A,]2 [A,,A,]2!ped-up! | %108
!ped! [A,,A,]2 [A,,A,]2 [A,,A,]2 [A,,A,]2!ped-up! | %109
!ped! [A,,A,]2 [A,,A,]2 [A,,A,]2 [A,,A,]2!ped-up! | %110
!ped! [A,,A,]2 [A,,A,]2 [A,,A,]2 [A,,A,]2!ped-up! | %111
 [A,,,A,,]2 [A,,,A,,][A,,,A,,] z [A,,,A,,] [A,,,A,,]2 | %112
 [A,,,A,,] [A,,,A,,]2 [A,,,A,,] [A,,,A,,]2 [A,,,A,,][A,,,A,,] | %113
 A,,,/A,,/A,,,/A,,/ A,,,/A,,/A,,,/A,,/ A,,,/A,,/A,,,/A,,/ A,,,/A,,/A,,,/A,,/ | %114
 z4 z A,,,/A,,/ [A,,,A,,][A,,,A,,] || [A,,,A,,]2 [A,,,A,,]2 [A,,,A,,]2 [A,,,A,,]2 | %116
 [A,,,A,,]2 [A,,,A,,]2 [A,,,A,,][A,,,A,,][G,,,G,,][G,,,G,,] | %117
 [F,,,F,,]2 [F,,,F,,]2 [F,,,F,,]2 [F,,,F,,]2 | %118
 [D,,D,]2 [D,,D,]2 [E,,,E,,][E,,,E,,][E,,,E,,][E,,,E,,] | %119
 [A,,,A,,]2 [A,,,A,,]2 [A,,,A,,]2 [A,,,A,,]2 | [A,,,A,,]2 [A,,,A,,]2 [B,,,B,,]2 [C,,C,]2 | %121
 [F,,,F,,]2 [F,,,F,,][F,,,F,,] z [F,,,F,,] [F,,,F,,]2 | [D,,D,]2 [D,,D,][D,,D,] [E,,E,]4 | %123
 [A,,,A,,]2 [A,,,A,,]2 [A,,,A,,]2 [A,,,A,,]2 | %124
 [A,,,A,,]2 [A,,,A,,]2 [A,,,A,,]2 [G,,,G,,][G,,,G,,] | %125
 [F,,,F,,]2 [F,,,F,,]2 [F,,,F,,]2 [F,,,F,,]2 | [D,,D,]2 [D,,D,]2 [E,,,E,,][E,,,E,,] [E,,,E,,]2 | %127
 [D,,,D,,]>[D,,,D,,] [D,,,D,,]3 [D,,,D,,]/[D,,,D,,]/ [D,,,D,,][D,,,D,,] | %128
 [D,,,D,,]2 [D,,,D,,]2 [E,,,E,,]2 [E,,,E,,]2 | z2 [F,,,F,,][F,,,F,,] [F,,,F,,]4 | %130
 [D,,D,]4 [E,,E,]4 | [A,,,E,,A,,]8 | z8 |] %133

